X:41
T:Maggie in the Woods
M:2/4
L:1/8
R:polka
N:I learned the third part from listening to people play it at session;
N:I've never seen more than two parts written down anywhere.
K:G
B/A/|GD GA|Be e/f/g/e/|dB B/A/G/A/|BA AB/A/|\
GD GA|Be e/f/g/e/|dB AB/A/|G2 G:|
d|g>f ed|ef g>e|dB B/A/G/A/|BA Ad|\
g>f ed|ef g>e|dB AB/A/|G2 G:|
d|g2 a2|b3 d|g2 a2| b3 b/a/|\
ge eg/e/|dB g>e|dB AB/A/|G2 G:|
